src/main/resources/icons/AllIcons/toolwindows/toolWindowAnt_dark.svg

<!-- Copyright 2000-2021 JetBrains s.r.o. Use of this source code is governed by the Apache 2.0 license that can be found in the LICENSE file. -->
<svg xmlns="http://www.w3.org/2000/svg" width="13" height="13" viewBox="0 0 13 13">
  <g fill="#AFB1B3" fill-rule="evenodd" transform="translate(1 .6)">
    <path fill-rule="nonzero" d="M1.5,11.3 L0.5,11.3 L0.5,8.5 C0.5,7.88595235 1.71359019,6.9150802 4.72026357,4.88557567 L5.27973643,5.71442435 C3.95663473,6.60751799 2.96647461,7.31713274 2.31234752,7.84043441 C1.9950885,8.09424163 1.76058121,8.30138973 1.61206897,8.45732759 C1.5324374,8.54094073 1.5,8.5912187 1.5,8.5 L1.5,11.3 Z"/>
    <path fill-rule="nonzero" d="M6.5,11.3 L5.5,11.3 L5.5,8.5 C5.5,7.88595235 6.71359019,6.9150802 9.72026357,4.88557567 L10.2797364,5.71442435 C8.95663473,6.60751799 7.96647461,7.31713274 7.31234752,7.84043441 C6.9950885,8.09424163 6.76058121,8.30138973 6.61206897,8.45732759 C6.5324374,8.54094073 6.5,8.5912187 6.5,8.5 L6.5,11.3 Z" transform="matrix(-1 0 0 1 15.78 0)"/>
    <circle cx="5.5" cy="2" r="2"/>
    <ellipse cx="5.5" cy="5.25" rx="1.5" ry="1.65"/>
    <path d="M5.5,11.3000002 C6.88071187,11.3000002 8,10.8807119 8,9.5 C8,9.03413577 7.64454187,8.05121568 7,7.30000001 C6.51205558,6.73129919 5.74221702,6.30000019 5.5,6.30000019 C5.17165544,6.30000019 4.47846273,6.69730257 4,7.30000001 C3.37970741,8.08135399 3,9.14620648 3,9.5 C3,10.8807119 4.11928813,11.3000002 5.5,11.3000002 Z"/>
    <path fill-rule="nonzero" d="M4.6131312,3.91296672 L4.3868688,4.88703311 C2.64608835,4.48267342 1.46148137,3.39528538 0.555108756,1.62819234 L1.44489124,1.1718075 C2.22758168,2.69776581 3.19173962,3.58279674 4.6131312,3.91296672 Z"/>
    <path fill-rule="nonzero" d="M10.1131312,3.91296672 L9.8868688,4.88703311 C8.14608835,4.48267342 6.96148137,3.39528538 6.05510876,1.62819234 L6.94489124,1.1718075 C7.72758168,2.69776581 8.69173962,3.58279674 10.1131312,3.91296672 Z" transform="matrix(-1 0 0 1 16.168 0)"/>
    <rect width="9.6" height="1" x=".7" y="4.7"/>
  </g>
</svg>

<svg xmlns="http://www.w3.org/2000/svg" width="13" height="13" viewBox="0 0 13 13"><rect id="frame" width="13" height="13" fill="none"/><g fill="#AFB1B3" fill-rule="evenodd" transform="translate(1 .6)"><path fill-rule="nonzero" d="M1.5 11.3h-1V8.5c0-.614 1.214-1.585 4.22-3.614l.56.828c-1.323.894-2.314 1.603-2.968 2.126a7.446 7.446 0 0 0-.7.617c-.08.084-.112.134-.112.043v2.8z"/><path fill-rule="nonzero" d="M9.28 11.3h1V8.5c0-.614-1.214-1.585-4.22-3.614l-.56.828c1.323.894 2.314 1.603 2.968 2.126.317.254.551.461.7.617.08.084.112.134.112.043v2.8z"/><circle cx="5.5" cy="2" r="2"/><ellipse cx="5.5" cy="5.25" rx="1.5" ry="1.65"/><path d="M5.5 11.3c1.38 0 2.5-.42 2.5-1.8 0-.466-.355-1.449-1-2.2-.488-.569-1.258-1-1.5-1-.328 0-1.022.397-1.5 1-.62.781-1 1.846-1 2.2 0 1.38 1.12 1.8 2.5 1.8z"/><path fill-rule="nonzero" d="M4.613 3.913l-.226.974C2.647 4.483 1.46 3.395.555 1.628l.89-.456c.783 1.526 1.747 2.41 3.168 2.741z"/><path fill-rule="nonzero" d="M6.055 3.913l.226.974c1.74-.404 2.926-1.492 3.832-3.259l-.89-.456c-.783 1.526-1.747 2.41-3.168 2.741z"/><path d="M.7 4.7h9.6v1H.7z"/></g></svg>
